X:1
T: Farnie House
C:
R:Reel
Q: 232
K:G
M:4/4
L:1/8
|:GA Bc d2 Bc|dB gd bg dB|GA Bc d2 Bd|cA af dc BA|
GA Bc d2 Bc|dB gd bg dB|GA Bc d2 Bd|cA af dc BA|
BG GG DG GG|BG GB de dc|BG GG DG GG|FG AB ce dc|
BG GG DG GG|BG GB de dc|Bd gf ed cB|AG FE DG G2:|
